X: 10883
T: Drops Of Brandy, The
R: slip jig
M: 9/8
K: Amajor
e2d cAc cAc|e2 d cAc d2B|e2d cAc cAc|f2fB2c dcB:|
|:Ace aec aec|Ace aec dcB|Ace aec aec|d2d B2c dcB:|

